X:1
T:Our Lord’s Return in Glory
T:Our Lord’s Return in Glory
T:Lyman F. Jackson
T:Lyman F. Jackson, 1908
T:Public Domain Courtesy of the Cyber Hymnal™
T:Public Domain Courtesy of the Cyber Hymnal™
C:Lyman F. Jackson
Z:Public Domain
Z:Courtesy of the Cyber Hymnal™
%%score ( 1 2 ) ( 3 4 )
L:1/8
Q:1/4=85
M:4/4
K:Ab
V:1 treble 
V:2 treble 
V:3 bass 
V:4 bass 
V:1
 [Ec]>[DB] | [DB][CA][CA][CA] [CA][CE][CB][CA] | [DA][DG][DG][D^F] [DG]2 [Gd][Ac] | %3
w: 1.~Je- sus|gave this gra- cious prom- ise Ere from|earth He went a- way, That in|
w: 2.~We would|hail the glor- ious dawn- ing Of that|glad ce- les- tial day, When “all|
w: 3.~O the|love that gave the prom- ise Of that|glor- ious day of days! O the|
 [Gc][GB][GB][^F=A] [Gc][GB][GB][EG] | [=DB][DA][DG][DF] [B,E]2 [Ec]>[DB] | %5
w: glo- ry He “would come a- gain,” Some|bright and bless- èd day! Then He|
w: sor- row, and all sigh- ing,” From the|earth “shall flee a- way!” And our|
w: grace that gives us cour- age To lift|up our hearts in praise! Will not|
 [DB][CA][CA][CA] [CA][CE][EG][EA] | [EG][DF][FB][Fc] [Fd]2 [Fd][Fd] | %7
w: bade His true dis- ci- ples Go to|na- tions far and near, Tell- ing|
w: hearts are filled with com- fort As we|trust, and hope and pray, That with|
w: fail us, when in glo- ry With the|ho- ly an- gel band, He shall|
 [Ec][EA]E[EA] [_Gc][Ge][Ge][Fd] | [Ec][Ed][Ec][EB] !fermata![EA]2 ||"^Refrain" [Ge]>[Gd] | %10
w: them of His sal- va- tion From all|sor- row, sin, and fear!||
w: our de- part- ed loved ones We may|reign with Him for aye.|He is|
w: come to lead His loved ones To that|hap- py, heav’n- ly land.||
 [Ac]2 [Ac]3 [Ec][=D=B][Ec] | [Fe]2 [Fd]4 [Fd]>[Ec] | [Gc][GB][GB][^F=A] [Gc][GB][EG][DE] | %13
w: |||
w: com- ing! Our Lord is|com- ing! In the|clouds of glo- ry He will come a-|
w: |||
 [Ec]6 [DE]>[DE] | [EA][EA][EG][EA] [DB][DB][C=A][DB] | [Ec][Ac][A=B][Ac] [Ad][Ad][A=d][Ad] | %16
w: |||
w: gain. “All His|loved ones then shall meet Him, And with|shouts of joy shall greet Him,” When He|
w: |||
 [Ae][Ec][EA][DF] [CE][Fd][Ec][EB] | [EA]6 |] %18
w: ||
w: come a- gain in ma- jes- ty to|reign!|
w: ||
V:2
 x2 | x8 | x8 | x8 | x8 | x8 | x8 | x2 E x5 | x6 || x2 | x8 | x8 | x8 | x8 | x8 | x8 | x8 | x6 |] %18
V:3
 [A,,E,]>[A,,E,] | [A,,E,][A,,E,][A,,E,][A,,E,] [A,,E,][A,,A,][A,,A,][C,A,] | %2
w: ~ ~|~ ~ ~ ~ ~ ~ ~ ~|
 [E,B,][E,B,][E,B,][E,=A,] [E,B,]2 [E,B,][E,C] | [E,D][E,D][E,D][E,C] [E,E][E,D][E,D][E,B,] | %4
w: ~ ~ ~ ~ ~ ~ ~|~ ~ ~ ~ ~ ~ ~ ~|
 [B,,F,][B,,F,][B,,B,][B,,A,] [E,G,]2 [E,G,]>[E,G,] | %5
w: ~ ~ ~ ~ ~ ~ ~|
 [A,,A,][A,,E,][A,,E,][A,,E,] [A,,E,][A,,A,][C,A,][C,A,] | %6
w: ~ ~ ~ ~ ~ ~ ~ ~|
 [D,A,][D,A,][D,A,][C,=A,] [B,,B,]2 [B,,B,][B,,A,] | %7
w: ~ ~ ~ ~ ~ ~ ~|
 [E,A,][E,C][A,C][A,C] [C,A,][C,A,][D,A,][D,A,] | [E,A,][D,B,][E,A,][E,D] !fermata![A,,C]2 || %9
w: ~ ~ ~ ~ ~ ~ ~ ~|~ ~ ~ ~ ~|
 [E,B,]>[E,E] | [A,E][A,E][A,E][A,E] A,A,A,A, | %11
w: He is|com- ing, com- ing, com- ing, yes, our|
 [D,A,][D,A,][D,A,][D,A,] [D,A,][D,A,] [B,,B,]>[C,A,] | %12
w: pre- cious Lord is com- ing. ~ ~|
 [E,E][E,D][E,D][E,C] [E,E][E,D][E,D][E,G,] | A,6 [E,G,]>[E,G,] | %14
w: ~ ~ ~ ~ ~ ~ ~ yes,|He will come|
 [C,A,][C,A,][B,,B,][A,,C] [E,G,][E,G,][E,^F,][E,G,] | %15
w: a- gain! * * * * * *|
 A,[A,E][A,=D][A,E] [F,A,][F,A,][_F,=B,][F,B,] | [E,C][E,A,][C,A,][D,A,] [E,A,][E,A,][E,G,][E,D] | %17
w: ||
 [A,,A,C]6 |] %18
w: |
V:4
 x2 | x8 | x8 | x8 | x8 | x8 | x8 | x8 | x6 || x2 | x4 A,A,A,A, | x8 | x8 | A,,C,F,E, A,,2 x2 | %14
 x8 | A, x7 | x8 | x6 |] %18

